icons/discussion-closed-24.svg

<svg width="24" height="24" viewBox="0 0 24 24" fill="none" xmlns="http://www.w3.org/2000/svg">
<path d="M3.5 6C3.5 5.86193 3.61193 5.75 3.75 5.75H16.25C16.3881 5.75 16.5 5.86193 16.5 6V10.75C16.5 11.1642 16.8358 11.5 17.25 11.5C17.6642 11.5 18 11.1642 18 10.75V6C18 5.0335 17.2165 4.25 16.25 4.25H3.75C2.7835 4.25 2 5.0335 2 6V15.5C2 16.4665 2.7835 17.25 3.75 17.25H5V18.7929C5 19.5976 5.65237 20.25 6.45711 20.25C6.84356 20.25 7.21418 20.0965 7.48744 19.8232L10.2803 17.0303C10.5732 16.7374 10.5732 16.2626 10.2803 15.9697C9.98744 15.6768 9.51256 15.6768 9.21967 15.9697L6.5 18.6893V16.5C6.5 16.0858 6.16421 15.75 5.75 15.75H3.75C3.61193 15.75 3.5 15.6381 3.5 15.5V6Z" fill="black"/>
<path d="M23.0303 12.7803C23.3232 12.4874 23.3232 12.0126 23.0303 11.7197C22.7374 11.4268 22.2626 11.4268 21.9697 11.7197L16 17.6893L13.5303 15.2197C13.2374 14.9268 12.7626 14.9268 12.4697 15.2197C12.1768 15.5126 12.1768 15.9874 12.4697 16.2803L15.4697 19.2803C15.7626 19.5732 16.2374 19.5732 16.5303 19.2803L23.0303 12.7803Z" fill="black"/>
</svg>

<svg xmlns="http://www.w3.org/2000/svg" width="24" height="24" viewBox="0 0 24 24"><path d="M3.5 6a.25.25 0 0 1 .25-.25h12.5a.25.25 0 0 1 .25.25v4.75a.75.75 0 0 0 1.5 0V6a1.75 1.75 0 0 0-1.75-1.75H3.75A1.75 1.75 0 0 0 2 6v9.5c0 .966.784 1.75 1.75 1.75H5v1.543a1.457 1.457 0 0 0 2.487 1.03l2.793-2.793a.749.749 0 1 0-1.06-1.06L6.5 18.689V16.5a.75.75 0 0 0-.75-.75h-2a.25.25 0 0 1-.25-.25V6Z"/><path d="M23.03 12.78a.749.749 0 1 0-1.06-1.06L16 17.689l-2.47-2.469a.749.749 0 1 0-1.06 1.06l3 3a.749.749 0 0 0 1.06 0l6.5-6.5Z"/></svg>
